!!!COM: Beethoven, Ludwig van
!!!CDT: 1770///-1827///
!!!OTL: Piano Sonata no. 31 in A-flat major
!!!ODT: 1821///-1822///
!!!OPS: 110
!!!OMV: 3
!!!OMD: Adagio ma non troppo
**kern	**kern	**dynam
*staff2	*staff1	*staff1
*clefF4	*clefG2	*clefG2
*k[b-e-a-d-g-]	*k[b-e-a-d-g-]	*k[b-e-a-d-g-]
*a-:	*a-:	*a-:
*M4/4	*M4/4	*M4/4
*MM60	*MM60	*MM60
=1-	=1-	=1-
*	*^	*
8..BBB-/ 8..BB-/L	8..dd-\ 8..ff\L	4r	.
32BBB-/ 32BB-/Jkk	32dd-\ 32ff\Jkk	.	.
8BBB-/ 8BB-/L	2r	(8ee-/ 8gg-/L	.
8BBB-/ 8BB-/J	.	8c/ 8e-/ 8g-/ 8an/J	.
2BBB-/ 2BB-/	.	8d-/) 8f/ 8b-/L	.
.	.	8ddn/ (8ff/J	.
.	4ee-\	8ee-/ 8aa-/L	.
.	.	8gg-/J)	.
*	*v	*v	*
=2	=2	=2
4CC-/ 4C-/	4ee-\ 4gg-\	.
4FF-/ 4F-/	4cc-\ 4aa-\	.
2GG-/ 2G-/	4c-/ 4d-/	.
.	4B-/ 4d-/ 4f-/	.
=3	=3	=3
*	*^	*
8GGn\ 8Gn\L	4e-/	8B-\ 8d-\L	.
8AA-\ 8A-\J	.	8c-\J	.
4DD-/ 4D-/	8A-/ 8B-/ 8f-/L	4r	.
.	8ff-/J	.	.
4EE-/ 4E-/	2r	8r	.
.	.	8A-/ 8B-/	.
4EE-/	.	8r	.
.	.	8Gn/ 8B-/ 8e-/	.
*	*v	*v	*
=4	=4	=4
*M7/4	*M7/4	*M7/4
*^	*	*
(40EE-/LLL	4r	8r	.
40GGn/	.	.	.
40BB-/	.	.	.
40D-/	.	.	.
40E-/JJJ)	.	.	.
8r	.	(48Gn/LLL	.
.	.	48B-/	.
.	.	48d-/	.
.	.	48e-/	.
.	.	48gn/	.
.	.	48b-/JJJ)	.
4r	4r	[4dd-/	.
2r	2r	8.dd-/L]	.
.	.	16b-/Jk	.
.	.	8a-/L	.
.	.	[8g/J	.
4r	4r	16g/LL]	.
.	.	32b-/L	.
.	.	32dd-/JJJ	.
.	.	32ff-/LLK	.
.	.	16ee-/	.
.	.	32b-/JJk	.
8r	8A-\ 8c-\	(16dd-/LL	.
.	.	16cc-/JJ)	.
8A-/ 8c-/L	8FF-\ 8F-\L	8r	<
8F-/ 8B--/	8DD-\ 8D-\	4r	.
8E-/ 8G-/ 8B--/J	8CC-\ 8C-\J	.	.
*v	*v	*	*
=5	=5	=5
*M4/4	*M4/4	*M4/4
1BBn 1D# 1F# 1An	32an/	p
.	16.aan\	.
.	[16aa\LL	.
.	16aa\JJ]	.
.	[16aa\LL	.
.	16aa\JJ]	.
.	[16.aa\	.
.	32aa\]	.
.	(32aa\LLL	.
.	32aa\JJJ	.
.	[32aa\LLL)	.
.	(32aa\JJJ]	.
.	32aa\LLL	.
.	(32aa\JJJ)	.
.	32aa\LLL	.
.	32aa\JJJ	.
.	[32aa\LLL)	.
.	32aa\JJJ]	.
.	8.r	.
=6	=6	=6
*k[f#c#g#d#]	*k[f#c#g#d#]	*k[f#c#g#d#]
*M17/16	*M17/16	*M17/16
1BB 1D# 1F# 1B	[32aa\LLL	>
.	32aa\JJJ]	.
.	[32aa\LLL	.
.	32aa\JJJ]	.
.	[32aa\LLL	.
.	32aa\JJJ]	.
.	[32aa\LLL	.
.	32aa\JJJ]	.
.	[32aa\LLL	.
.	32aa\JJJ_	.
.	8aa\L]	.
.	8ff#\J	.
.	8dd#\L	.
.	8a\J	.
.	(12cc#\L	.
.	12b\)	.
.	12a\J	.
16r	.	.
=7	=7	=7
*M5/4	*M5/4	*M5/4
4E\ 4G#\ 4B\	(8g#/	<
.	4ee\	.
4D-\ 4En\ 4Gn\ 4B-\	.	.
.	8gn/	.
*k[b-e-a-d-g-c-]	*k[b-e-a-d-g-c-]	*k[b-e-a-d-g-c-]
4Dn\ 4F\ 4A-\ 4c-\	4cc-\)	.
4r	(8b-'/L	.
.	8a-'/J)	.
4r	(8.gn/	.
.	16a-/	.
=8	=8	=8
*M12/16	*M12/16	*M12/16
4.r	8.a-/	.
.	8.e-/)	.
16E-\LL	16e-/LL	p
16E-\	16e-/	.
16E-\JJ	16e-/JJ	.
16E-\LL	16e-/LL	.
16E-\	16e-/	.
16E-\JJ	16e-/JJ	.
=9	=9	=9
16C-/ 16E-/LL	16c-/ 16e-/LL	<
16C-/ 16E-/	16c-/ 16e-/	.
16C-/ 16E-/JJ	16c-/ 16e-/JJ	.
16C-/ 16E-/LL	16c-/ 16e-/LL	.
16C-/ 16E-/	16c-/ 16e-/	.
16C-/ 16E-/JJ	16c-/ 16e-/JJ	.
16AA-/ 16C-/ 16E-/LL	16A-/ 16c-/ 16e-/LL	.
16AA-/ 16C-/ 16E-/	16A-/ 16c-/ 16e-/	.
16AA-/ 16C-/ 16E-/JJ	16A-/ 16c-/ 16e-/JJ	>
16AA-/ 16C-/ 16E-/LL	16A-/ 16c-/ 16e-/LL	.
16AA-/ 16C-/ 16E-/	16A-/ 16c-/ 16e-/	.
16AA-/ 16C-/ 16E-/JJ	16A-/ 16c-/ 16e-/JJ	.
=10	=10	=10
16AA-/ 16C-/ 16E-/LL	[8.ee-\	p
16AA-/ 16C-/ 16E-/	.	.
16AA-/ 16C-/ 16E-/JJ	.	.
16AA-/ 16C-/ 16E-/LL	(8ee-\L]	.
16AA-/ 16C-/ 16E-/	.	.
16AA-/ 16C-/ 16E-/JJ	[16dd-\Jk	.
16AA-/ 16C-/ 16E-/LL	8dd-\L]	.
16AA-/ 16C-/ 16E-/	.	.
16AA-/ 16C-/ 16E-/JJ	16cc-\Jk	.
16AA-/ 16C-/ 16E-/LL	16b-\LL	.
16AA-/ 16C-/ 16E-/	16cc-\	.
16AA-/ 16C-/ 16E-/JJ	16a-\JJ)	.
=11	=11	=11
16BB-\ 16D-\ 16E-\LL	(8.a-/L	.
16BB-\ 16D-\ 16E-\	.	.
16BB-\ 16D-\ 16E-\JJ	.	.
16BB-\ 16D-\ 16E-\LL	[8.gn/J)	.
16BB-\ 16D-\ 16E-\	.	.
16BB-\ 16D-\ 16E-\JJ	.	.
16BB-\ 16D-\ 16E-\LL	(8g\L]	.
16BB-\ 16D-\ 16E-\	.	.
16BB-\ 16D-\ 16E-\JJ	[16ff-\Jk	.
16BB-\ 16D-\ 16E-\LL	8ff-\L]	.
16BB-\ 16D-\ 16E-\	.	.
16BB-\ 16D-\ 16E-\ 16Gn\JJ	16ee-\Jk)	.
=12	=12	=12
16C-\ 16E-\ 16A-\LL	(8ee-\L	<
16C-\ 16E-\ 16A-\	.	.
16C-\ 16E-\ 16A-\JJ	[16aa-\Jk	.
16Cn\ 16E-\ 16A-\LL	8aa-\L]	.
16C\ 16E-\ 16A-\	.	.
16C\ 16E-\ 16A-\JJ	[16gg-\Jk)	.
16D-\ 16F-\ 16A-\LL	(8gg-\L]	.
16D-\ 16F-\ 16A-\	.	.
16D-\ 16F-\ 16A-\JJ	16ff-\Jk	.
16F-\ 16A-\ 16d-\LL	8ee-\L	.
16F-\ 16A-\ 16d-\	.	.
16F-\ 16A-\ 16d-\JJ	16dd-\Jk)	.
=13	=13	=13
16E-\ 16A-\ 16c-\LL	[8.cc-\	p
16E-\ 16A-\ 16c-\	.	.
16E-\ 16A-\ 16c-\JJ	.	.
16E-\ 16A-\ 16c-\LL	(16cc-\LL]	.
16E-\ 16A-\ 16c-\	16dd-\	.
16E-\ 16A-\ 16c-\JJ	32ee-\L	.
.	64dd-\L	.
.	64cc-\JJJJ)	.
16E-\ 16Gn\ 16B-\LL	[8.b-\	<
16E-\ 16G\ 16B-\	.	.
16E-\ 16G\ 16B-\JJ	.	.
16D-\ 16E-\ 16G\ 16B-\LL	(16b-\LL]	>
16C-\ 16E-\ 16A-\	16cc-\	.
16BB-\ 16E-\ 16G\JJ	16dd-\JJ)	.
=14	=14	=14
16AA-\ 16E-\ 16A-\LL	(4.cc-\	p
16AA-\ 16C-\ 16E-\	.	.
16AA-\ 16C-\ 16E-\JJ	.	.
16AA-\ 16C-\ 16E-\LL	.	.
16AA-\ 16C-\ 16E-\	.	.
16AA-\ 16C-\ 16E-\JJ	.	.
16GG-\ 16C-\ 16F-\LL	4.dd-\	.
16GG-\ 16C-\ 16F-\	.	.
16GG-\ 16C-\ 16F-\JJ	.	.
16GG-\ 16BB-\ 16F-\LL	.	.
16GG-\ 16BB-\ 16F-\	.	.
16GG-\ 16BB-\ 16F-\JJ	.	.
=15	=15	=15
16GG-\ 16C-\ 16E-\LL	4.ee-\	.
16GG-\ 16C-\ 16E-\	.	.
16GG-\ 16C-\ 16E-\JJ	.	.
16C-\ 16G-\ 16c-\LL	.	.
16C-\ 16G-\ 16c-\	.	.
16C-\ 16G-\ 16c-\JJ	.	.
16D-\ 16F-\ 16c-\LL	8.ff-\L	.
16D-\ 16F-\ 16c-\	.	.
16D-\ 16F-\ 16c-\JJ	.	.
16D-\ 16F-\ 16B-\LL	8.aa-\J	.
16D-\ 16F-\ 16B-\	.	.
16D-\ 16F-\ 16B-\JJ	.	.
=16	=16	=16
16E-\ 16G-\ 16c-\LL	8gg-\L	.
16E-\ 16G-\ 16c-\	.	.
16E-\ 16G-\ 16c-\JJ	16ccc-\Jk	.
16F-\ 16c-\ 16f-\LL	8aa-\L	.
16F-\ 16c-\ 16f-\	.	.
16F-\ 16c-\ 16f-\JJ	[16aaa-\Jk)	.
16G-\ 16c-\ 16e-\LL	8aaa-\L]	.
16G-\ 16c-\ 16e-\	.	.
16G-\ 16c-\ 16e-\JJ	([16ggg-\Jk	>
16G-\ 16B-\ 16d-\ 16f-\LL	16ggg-\LL]	.
16G-\ 16B-\ 16d-\ 16f-\	16eee-\	.
16G-\ 16B-\ 16d-\ 16f-\JJ	32fff-\L	.
.	32bb-\JJJ)	.
=17	=17	=17
16Gn\ 16B-\ 16d-\ 16f-\LL	(4.ddd-\	.
16G\ 16B-\ 16d-\ 16f-\	.	.
16G\ 16B-\ 16d-\ 16f-\JJ	.	.
16G-\ 16B-\ 16d-\ 16f-\LL	.	.
16G-\ 16B-\ 16d-\ 16f-\	.	.
16G-\ 16B-\ 16d-\ 16g-\JJ	.	.
*clefG2	*	*
16c-/ 16e-/ 16g-/LL	8.ccc-\)	.
16c-/ 16e-/ 16g-/	.	.
16c-/ 16e-/ 16g-/JJ	.	.
16c-/ 16e-/ 16g-/LL	[8.ee-\	.
16c-/ 16e-/ 16g-/	.	.
16c-/ 16e-/ 16g-/JJ	.	.
=18	=18	=18
16cn/ 16e-/ 16g-/LL	(8.ee-\L]	.
16c/ 16e-/ 16g-/	.	.
16c/ 16e-/ 16g-/JJ	.	.
16c/ 16e-/ 16g-/LL	8.b--\	.
16c/ 16e-/ 16g-/	.	.
16c/ 16e-/ 16g-/JJ	.	.
16c/ 16e-/ 16g-/LL	8.a-\J	.
16c/ 16e-/ 16g-/	.	.
16c/ 16e-/ 16g-/JJ	.	.
16c/ 16e-/ 16g-/ 16a-/LL	8gg-\L	.
16c/ 16e-/ 16g-/ 16a-/	.	.
16c/ 16e-/ 16g-/ 16a-/JJ	16ee-\Jk)	.
=19	=19	=19
*	*^	*
16d-/ 16f-/ 16a-/LL	(8.gg-/L	8.r	.
16d-/ 16f-/ 16a-/	.	.	.
16d-/ 16f-/ 16a-/JJ	.	.	.
16d-\ 16f-\ 16a-\LL	[8.ff-/J	16r	.
*clefF4	*	*	*
16D-\ 16A-\ 16d-\	.	16a-\LL	.
16D-\ 16A-\ 16d-\JJ	.	16a-\JJ	.
16D-\ 16A-\ 16d-\LL	8.ff-/L]	16a-\LL	.
16D-\ 16A-\ 16d-\	.	16a-\	.
16D-\ 16A-\ 16d-\JJ	.	16a-\JJ	.
16E-\ 16A-\ 16c-\LL	[8.ee-/J)	16a-\LL	.
16E-\ 16A-\ 16c-\	.	16a-\	.
16E-\ 16A-\ 16c-\JJ	.	16a-\JJ	.
=20	=20	=20	=20
16F-\ 16A-\ 16d-\LL	(8ee-/L]	16a-\LL	.
16F-\ 16A-\ 16d-\	.	16a-\	.
16F-\ 16A-\ 16d-\JJ	[16dd-/Jk	16a-\JJ	.
16E-\ 16A-\ 16c-\LL	8dd-/L]	16a-\LL	.
16E-\ 16A-\ 16c-\	.	16a-\	.
16E-\ 16A-\ 16c-\JJ	[16cc-/Jk)	16a-\JJ	.
16D-\ 16F-\ 16B-\LL	8cc-/L]	4.r	.
16D-\ 16F-\ 16B-\	.	.	.
16D-\ 16F-\ 16B-\JJ	[16b-/Jk	.	.
16Dn\ 16Fn\ 16B-\LL	(16b-/LL]	.	>
16D\ 16F\ 16c-\	16cc-/	.	.
16D\ 16F\ 16c-\JJ	16a-/JJ)	.	.
*	*v	*v	*
=21	=21	=21
16E-\ 16A-\ 16c-\LL	4.a-/	.
16E-\ 16A-\ 16c-\	.	.
16E-\ 16A-\ 16c-\JJ	.	.
16E-\ 16c-\ 16dn\LL	.	.
16E-\ 16c-\ 16d\	.	.
16E-\ 16c-\ 16d\JJ	.	.
16E-\ 16B-\ 16e-\LL	8.gn/L	.
16E-\	.	.
16E-\JJ	.	.
16E-\LL	(8.e-/J	.
16E-\	.	.
16D-\ 16E-\JJ	.	.
=22	=22	=22
*	*^	*
16C-\ 16E-\LL	(4.a-/)	16r	<
16C-\ 16E-\	.	16dn\LL	.
16C-\ 16E-\JJ	.	16d\JJ	.
16C-\ 16E-\LL	.	16d\LL	.
16C-\ 16E-\	.	&(16e-\&)	.
16C-\ 16E-\JJ	.	16e-\JJ	.
16BB-\ 16E-\LL	4.gn/	8.f-\L	>
16BB-\ 16E-\	.	.	.
16BB-\ 16E-\JJ	.	.	.
16BB-\ 16E-\LL	.	[8.e-\J	.
16BB-\ 16E-\	.	.	.
16BB-\ 16E-\JJ	.	.	.
=23	=23	=23	=23
16AA-\ 16E-\LL	(4.cc-/)	16e-\LL]	.
16AA-\ 16E-\	.	16dn\	<
16AA-\ 16E-\JJ	.	16d\JJ	.
16AA-\ 16E-\LL	.	16d\LL	.
16AA-\ 16E-\	.	&(16e-\&)	.
16AA-\ 16E-\JJ	.	16e-\JJ	.
16GG-\ 16E-\LL	8.b-/L	8f-\L	>
16GG-\ 16E-\	.	.	.
16GG-\ 16E-\JJ	.	16e-\Jk	.
16GG-\ 16E-\LL	8.ccn/J	8a-\L	.
16GG-\ 16E-\	.	.	.
16G-\ 16A-\JJ	.	16e-\Jk	.
=24	=24	=24	=24
16F-\ 16A-\LL	[8.dd-/	16a-\LL	.
16F-\ 16A-\ 16d-\	.	16a-\)	.
16F-\ 16A-\ 16d-\JJ	.	16a-\JJ	.
16F-\ 16A-\ 16d-\LL	16dd-/LL]	16a-\LL	.
16E-\ 16A-\ 16cn\	16ee-/	16a-\	.
16D-\ 16A-\ 16d-\JJ	[16ff-/JJ	16a-\JJ	.
16E-\ 16A-\ 16c-\LL	(8ff-/L]	4.r	.
16E-\ 16A-\ 16c-\	.	.	.
16E-\ 16A-\ 16c-\JJ	[16ee-/Jk	.	.
16E-\ 16Gn\ 16B-\ 16d-\LL	8ee-/L]	.	.
16E-\ 16G\ 16B-\ 16d-\	.	.	.
16E-\ 16G\ 16B-\ 16d-\JJ	16gn/Jk)	.	.
=25	=25	=25	=25
16F-\ 16Gn\ 16B-\ 16d-\LL	(4.b-/	8r	.
16F-\ 16G\ 16B-\ 16d-\	.	.	.
16F-\ 16G\ 16B-\ 16d-\JJ	.	16r	.
16E-\ 16G\ 16B-\ 16d-\LL	.	16e-\LL	.
16E-\ 16G\ 16B-\ 16d-\	.	16e-\	.
16E-\ 16G\ 16B-\ 16d-\JJ	.	16e-\JJ	.
8.A-\ 8.c-\	4.a-/)	8.e-\	.
8.CC-/ 8.C-/	.	8.c-/	>
*	*v	*v	*
*	*clefF4	*clefF4
=26	=26	=26
8.BBB-/ 8.BB-/L	8.B-\L	.
8.EE-/	8.E-\ 8.e-\	.
8AAA-/ 8AA-/J	8A-\J	.
16r	16r	.
16AAA-/ 16AA-/	16A-\	pp
16r	16r	.
16r	16r	.
=27	=27	=27
4.AAA-;/ 4.AA-;/	4.A-;\	.
=	=	=
*	*clefG2	*clefG2
*k[b-e-a-d-]	*k[b-e-a-d-]	*k[b-e-a-d-]
*MM110	*MM110	*MM110
*M6/8	*M6/8	*M6/8
(4.A-\	4r	.
.	8r	.
=28	=28	=28
4.d-\	2.r	.
4.B-\	.	.
=29	=29	=29
4.e-\	2.r	.
4.c\	.	.
=30	=30	=30
4.f\	2.r	.
4e-\	.	.
8d-\)	.	.
=31	=31	=31
[4.c\	4r	.
.	8r	.
8c\L]	(4.e-/	p
8A-\	.	.
8G\J	.	.
=32	=32	=32
8F\L	4.a-/	p
8G\	.	.
8E-\J	.	.
8Dn\L	4.f/	.
8E-\	.	.
8F\J	.	.
=33	=33	=33
8G\L	4.b-/	.
8A-\	.	.
8F\J	.	.
8En\L	4.g/	.
8F\	.	.
8G\J	.	.
=34	=34	=34
&(8A-\L&)	4.cc\	.
8G\	.	.
8A-\J	.	.
8B-\L	4b-\	.
8c\	.	.
8dn\J	8a-/	.
=35	=35	=35
8e-\L	4.g/)	.
8f\	.	.
8dn\J	.	.
8e-\L	[4.b-/	.
8f\	.	.
8d-\J	.	.
=36	=36	=36
8c\L	4.b-/]	.
8e-\	.	.
8d-\J	.	.
8c\L	4a-/	.
8d-\	.	.
[8e-\J	8g-/	.
=37	=37	=37
*	*^	*
8e-\L]	4r	[4.f\	.
8c\	.	.	.
[8d-\J	8r	.	.
8d-\L]	4.a-/	8f\L]	p
8Bn\	.	8dn\	.
[8c\J	.	8e-\J	.
=38	=38	=38	=38
8c\L]	4.dd-/	8f\L	.
8B-\	.	8b-\	.
8c\J	.	[8a-\J	.
4e-\	4.b-/	8a-\L]	.
.	.	8f\	.
8d-\	.	[8gn\J	.
=39	=39	=39	=39
4c\	4.ee-/	8g\L]	.
.	.	8cc\	.
8C/	.	[8b-\J	.
4F\	4.cc/	8b-\L]	.
.	.	8g\	.
8E-\	.	[8an\J	.
=40	=40	=40	=40
4D-\	4.ff/	(8a\L]	.
.	.	8b-\	.
8Dn\	.	8a-\J	.
8E-\L	4ee-/	8g\L	.
8F\	.	8a-\	.
8G\J	8dd-/	8b-\J)	.
=41	=41	=41	=41
(8A-\L	4.cc/	4.e-\	.
8c\	.	.	.
8B-\J	.	.	.
8A-\L	[4.ee-/	8cc\L	.
8B-\	.	8dd-\	.
8G\J	.	8b-\J	.
=42	=42	=42	=42
8F\L	4.ee-/]	8a-\L	.
8A-\	.	8cc\	.
8G\J	.	8b-\J	.
8F\L	4dd-/	8a-\L	.
8En\	.	8g\	.
8F\J)	8cc/	8a-\J	.
=43	=43	=43	=43
8G\L	4.b-/	8en\L	.
8B-\	.	8g\	.
8A-\J	.	8f\J	.
8G\L	[4.dd-/	8b-\L	.
8A-\	.	8cc\	.
8F\J	.	8a-\J	.
=44	=44	=44	=44
8En\L	4.dd-/]	8g\L	.
8G\	.	8b-\	.
8F\J	.	8a-\J	.
8E\L	4cc/	8g\L	.
8Dn\	.	8f\	.
8E\J	8b-/	[8g\J	.
=45	=45	=45	=45
8F\L	4a-/	8g\L]	<
8E-\	.	8c\	.
8Dn\J	8b-/	[8f\J	.
8E-/L	4g/	8f\L]	.
8C/	.	8e-\	.
8AA-/J	8a-/	8f\J	.
=46	=46	=46	=46
8AAn/	4f/	8e-\L	.
4BB-/	.	8dn\	.
.	16e-/LL	8A-\J	.
.	[16f/JJ	.	f
4.EE-/ 4.E-/	8f/L]	4.G\	.
.	8e-/	.	.
.	8d-/J	.	.
=47	=47	=47	=47
4.AA-\ 4.A-\	8c\	8c/L	.
.	8b-\L	8d-/	.
.	8g\J	8B-/J	.
4.FF\ 4.F\	4.a-\	8A-/L	.
.	.	8B-/	.
.	.	8c/J	.
=48	=48	=48	=48
4.BB-\ 4.B-\	4.g\	8d-/L	.
.	.	8e-/	.
.	.	8c/J	.
4.GG\ 4.G\	[4.b-\	8B-/L	.
.	.	8c/	.
.	.	8d-/J	.
=49	=49	=49	=49
4.C\ 4.c\	8e-/L	8b-\]	.
.	8g/	4e-\	.
.	[8a-/J	.	.
4BB-\ 4B-\	8a-/L]	4.dn\	.
.	8b-/	.	.
8AA-\ 8A-\	([8cc/J	.	.
=50	=50	=50	=50
4.GG\ 4.G\	8cc/L])	4.e-\	.
.	8an/	.	.
.	8b-/J	.	.
[4.BB-\ [4.B-\	8e-/L	[4.d-\	>
.	8f/	.	.
.	8g/J	.	.
=51	=51	=51	=51
4.BB-\] 4.B-\]	8a-/L	4.d-\]	.
.	8f/	.	.
.	[8g/J	.	.
4AA-\ 4A-\	8g/L]	4.c\	.
.	8a-/	.	.
8GG-\ 8G-\	[8b-/J	.	.
=52	=52	=52	=52
[4.FF\ [4.F\	8b-/L]	4.d-\	.
.	8gn/	.	.
.	[8a-/J	.	.
8FF\] 8F\L]	8a-/L]	4.dn\	.
8G-\	8b-/	.	.
[8F\J	[8a-/J	.	.
=53	=53	=53	=53
8F\L]	8a-/L]	4.e-\	.
8Dn\	8f/	.	.
[8E-\J	[8g-/J	.	.
8E-\L]	8g-/L]	4B-\	.
8F\	8a-/	.	.
[8E-\J	[8g-/J	8c\	.
=54	=54	=54	=54
8E-\L]	8g-/L]	8d-\	.
8C\	8en/	8r	.
[8D-\J	[8f/J	8r	.
8D-/L]	8f/L]	4.A-\	p
8BBn/	(8dn/	.	.
8C/J	8e-/J	.	.
=55	=55	=55	=55
8BB-/L	8gn/L	4.d-\	.
8C/	8a-/	.	.
8AA-/J	8f/J	.	.
8GGn/L	8e-/L	4.B-\	.
8AA-/	8f/	.	.
8BB-/J	8g/J	.	.
=56	=56	=56	=56
8C/L	8a-/L	4.e-\	.
8D-/	8b-/	.	.
8BB-/J	8g-/J	.	.
8AAn/L	8f/L	4.c\	.
8BB-/	8gn/	.	.
8C/J	8an/J	.	.
=57	=57	=57	=57
8D-/L	4b-/	4.f\	.
8C/	.	.	.
8Dn/J	8a-/	.	.
8E-\L	8g/L	4e-\	.
8F\	8a-/	.	.
8G\J	[8b-/J	8d-\	.
=58	=58	=58	=58
(8A-\L	4.b-/]	4.c\)	.
8B-\	.	.	.
8G\J	.	.	.
8F\L	[4.a-/	4d-\	.
8En\	.	.	.
8F\J)	.	8c\	.
=59	=59	=59	=59
(8G\L	4.a-/]	4.B-\	.
8A-\	.	.	.
8F\J	.	.	.
8En\L	[4.g/	4c\	.
8Dn\	.	.	.
8E\J)	.	8B-\	.
*	*v	*v	*
=60	=60	=60
*^	*	*
4.A-/	4F\	(8g/L]	.
.	.	8a-/	.
.	8E-\	8g/J	.
4B-/	4D-\	8f/L	.
.	.	8en/	.
8A-/	8C\	8f/J	.
=61	=61	=61	=61
4.G/	4BB-\	8g/L	.
.	.	8a-/	.
.	8BBn\	[8f/J	.
4A-/	4C\	8f/L]	.
.	.	8dn/	.
8G/	8BB-\	8en/J)	.
=62	=62	=62	=62
4.c/	4AA-\	8f/L	.
.	.	8g-/	.
.	8AAn\	8e-/J	.
4.F/	4BB-\	8d-/L	.
.	.	8c/	.
.	8AA-\	[8d-/J	.
=63	=63	=63	=63
*	*	*^	*
4.E-/	8GG\L	8d-/L]	4r	.
.	8AA-\	8c/	.	.
.	8GG\J	8B-/J	8e-\	.
4.r	8FF/L	(4.e-/	8A-\L	.
.	8EE-/	.	8G\	.
.	8DD-/J	.	8B-\J	.
*v	*v	*	*	*
=64	=64	=64	=64
8CC/L	4.a-/	8e-\L	.
8DD-/	.	8f\	.
8BBB-/J	.	8d-\J	.
8AAAn/L	4.f/	8c\L	.
8BBB-/	.	8d-\	.
8CC/J	.	8e-\J	.
=65	=65	=65	=65
8DD-/L	4.b-/	8f\L	.
8EE-/	.	8g-\	.
8CC/J	.	8e-\J	.
8BBB-/L	4.gn/	8d-\L	.
8CC/	.	8e-\	.
[8DD-/J	.	8f\J	.
=66	=66	=66	=66
8DD-/L]	4.cc/	8e-\	.
8CC/	.	[4a-\	.
8EE-/J	.	.	.
8DD-/L	4b-/	8a-\L]	.
8FF/	.	8dn\	.
8DDn/J	8a-/	8f\J	.
=67	=67	=67	=67
8EE-/L	4.g/)	4.B-\	.
8GG/	.	.	.
8FF/J	.	.	.
8EE-/L	[4.dd-/	4.b-\	<
8DDn/	.	.	.
8EE-/J	.	.	.
=68	=68	=68	=68
8EEn/L	4.dd-/]	8g\L	.
8GG/	.	8b-\	.
8FF/J	.	8a-\J	.
8EE/L	4cc/	8g\L	.
8DDn/	.	8f\	.
8EE/J	8b-/	8g\J	.
=69	=69	=69	=69
8FF/L	4.an/	8c\L	.
8AAn/	.	8cc\	.
8GG/J	.	8b-\J	.
8FF/L	[4.ee-/	8a\L	.
8GG/	.	8b-\	.
8AA/J	.	8cc\J	.
=70	=70	=70	=70
8FF#/L	4.ee-/]	8an\L	.
8AAn/	.	8cc\	.
8GG/J	.	8b-'\J	.
8FF#/L	4ddn/	8a\L	.
8GG/	.	8b-\	.
8AA/J	8cc/	8f#\J	.
=71	=71	=71	=71
8GG/L	4bn/	8dn\L	.
8Dn/	.	8ffn\	.
8C/J	8r	8ee-\J	.
8BBn/L	[4.aa-/	8ddn\L	f
8C/	.	8ee-\	.
8D/J	.	8ff\J	.
=72	=72	=72	=72
8Dn\L	4.aa-/]	8bn\L	>
8E-\	.	8cc\	.
8F\J	.	8ddn\J	.
4r	4gg/	8ee-\L	.
.	.	8ff\	.
8r	8ff/	8dd\J	.
=73	=73	=73	=73
2.r	4.ee-/	8g\L	p
.	.	8cc\	.
.	.	8b-\J	.
.	4ff/	8a-\L	.
.	.	8g\	.
.	8ddn/	8f\J	.
=74	=74	=74	=74
2.GGG/ 2.GG/	4.ee-/	8g\L	ff
.	.	8bn\	.
.	.	[8cc\J	.
.	[4.ddn/	8cc\L]	.
.	.	8an\	.
.	.	8b\J	.
=75	=75	=75	=75
4.CC/ 4.C/	8dd/L]	4.e-\	.
.	8ee-/	.	.
.	[8cc/J	.	.
4.AAAn/ 4.AAn/	8cc/L]	[4.f\	.
.	8ddn/	.	.
.	[8ee-/J	.	.
=76	=76	=76	=76
4.DDn/ 4.Dn/	8ee-/L]	4.f\]	.
.	8ff/	.	.
.	8ee-/J	.	.
4.BBBn/ 4.BBn/	8ddn/L	[4.g\	.
.	8ee-/	.	.
.	8ff/J	.	.
=77	=77	=77	=77
4.EE-/ 4.E-/	4gg/	8g\L]	.
.	.	8a-\	.
.	8r	8f\J	.
4.CC/ 4.C/	4r	8e-\L	.
.	.	8f\	.
.	8r	[8g\J	.
=78	=78	=78	=78
4.FF/ 4.F/	2.r	8g\L]	.
.	.	8a-\	.
.	.	8g\J	.
4.DDn/ 4.Dn/	.	8f\L	.
.	.	8g\	.
.	.	8a-\J	.
=79	=79	=79	=79
4.GG/ 4.G/	8aa-/L	4.b-\	.
.	8bb-/	.	.
.	[8gg/J	.	.
4.EEn/ 4.En/	8gg/L]	4.cc\	.
.	8aan/	.	.
.	[8bb-/J	.	.
=80	=80	=80	=80
4AAn\ 4An\	8bb-/L]	4.cc\	.
.	8ccc/	.	.
8GG\ 8G\	8bb-/J	.	.
8FF\ 8F\L	8aan/L	[4.ee-\	.
8GG\ 8G\	8bb-/	.	.
8AA\ 8A\J	8ccc/J	.	.
=81	=81	=81	=81
4.BB-\ 4.B-\	4ddd-/	8ee-\L]	.
.	.	8dd-\	.
.	8r	[8b-\J	.
4.C\ 4.c\	[4.ff/	8b-\L]	.
.	.	8an\	.
.	.	[8cc\J	.
=82	=82	=82	=82
4.D-\ 4.d-\	4.ff/]	8cc\L]	.
.	.	8b-\	.
.	.	8dd-\J	p
8c\L	4an/	[4.f\	.
8d-\	.	.	.
[8e-\J	8cc/	.	.
=83	=83	=83	=83
8e-\L]	4b-/	2.f\_	.
8d-\	.	.	.
[8B-\J	8dd-/	.	.
8B-\L]	4cc/	.	.
8An\	.	.	.
[8c\J	8ee-/	.	.
=84	=84	=84	=84
8c\L]	4dd-/	4.f\]	.
8B-\	.	.	.
8d-\J	8ff/	.	.
8G\L	[4.ee-/	8b-\L	f
8A-\	.	8cc\	.
[8B-\J	.	8dd-\J	.
=85	=85	=85	=85
8B-\L]	2.ee-/_	4cc\	.
8A-\	.	.	.
[8c\J	.	8a-\	.
8c\L]	.	4g\	.
8B-\	.	.	.
[8d-\J	.	8b-\	.
=86	=86	=86	=86
8d-\L]	4.ee-/]	4a-\	.
8c\	.	.	.
8e-\J	.	8cc\	.
8B-\L	4g/	[4.e-\	p
8c\	.	.	.
[8d-\J	8b-/	.	.
=87	=87	=87	=87
8d-\L]	4a-/	2.e-\_	.
8c\	.	.	.
[8A-\J	8cc/	.	.
8A-\L]	4b-/	.	.
8G\	.	.	.
[8B-\J	8dd-/	.	.
=88	=88	=88	=88
8B-\L]	8cc/L	8e-\L]	.
8A-\	8dd-/	8b-\	.
8G-\J	8ee-/J	8cc\J	.
8F\L	4ff/	4.d-\	.
8En\	.	.	.
8F\J	8r	.	.
=89	=89	=89	=89
8E-\L	4.g-/	8r	.
8F\	.	8r	.
[8D-\J	.	[8B-\	.
8D-\L]	4.e-/	8B-\L]	.
8C\	.	8A-\	.
[8G-\J	.	[8c\J	.
=90	=90	=90	=90
8G-\L]	4.a-\	8c/L]	.
8F\	.	8d-/	.
8E-\J	.	[8e-/J	.
8D-\L	4.f\	8e-/L]	.
8B-\	.	8d-/	.
8A-\J	.	8dn/J	.
=91	=91	=91	=91
8G-\L	4.b-\	8e-/L	.
8E-\	.	8g-/	.
8D-\J	.	8f/J	.
8C\L	4a-\	8e-/L	.
8D-\	.	8f/	.
8E-\J	8g-\	8c/J	.
=92	=92	=92	=92
8D-\L	8f\L	4d-/	.
8E-\	8g-\	.	.
[8D-\J	[8f\J	8A-/	.
8D-/L]	8f\L]	(4.a-/	.
8BBn/	8dn\	.	.
[8C/J	8e-\J	.	.
=93	=93	=93	=93
8C/L]	4.dd-/	4.f\	.
8BB-/	.	.	.
8D-/J	.	.	.
8E-\L	4.b-/	4.gn\	.
8F\	.	.	.
8D-\J	.	.	.
=94	=94	=94	=94
8C/L	4.ee-/	8a-\L	.
8AA-/J	.	8cc\	.
8r	.	[8b-\J	.
4.A-\	4.cc/	8b-\L]	.
.	.	8a-\	.
.	.	8g-\J	.
=95	=95	=95	=95
4.d-\	4.ff/	8f\L	.
.	.	8b-\	.
.	.	8a-\J	.
4.B-\	4ee-/	8gn\L	.
.	.	8a-\	.
.	8dd-/	[8b-\J	.
=96	=96	=96	=96
4e-\	4cc/)	8b-\L]	.
.	.	8a-\	.
[8c\	8ee-/	8g\J	.
8c\L]	4dd-/	8f\L	.
8B-\	.	8g\	.
8A-\J	8cc/	[8a-\J	.
=97	=97	=97	=97
8G\L	4b-/	8a-\L]	.
8A-\	.	8g\	.
8B-\J	8dd-/	8f\J	.
8c\L	4cc/	8en\L	.
8Dn\	.	8f\	.
8En\J	8b-/	[8g\J	.
=98	=98	=98	=98
8F\L	4a-/	8g\L]	.
8G\	.	8f\	.
8A-\J	8cc/	8e-\J	.
8B-\L	4b-/	8dn\L	.
8C\	.	8e-\	.
8Dn\J	8a-/	8f\J	.
=99	=99	=99	=99
4EE-/ 4E-/	8g/L	8B-\L	.
.	8cc/	8e-\	.
[8EE-/ 8E-/	8b-/J	8g\J	.
4.EE-/_ [4.E-/	8a-/L	4f\	<
.	8b-/	.	.
.	[8cc/J	8e-\	.
=100	=100	=100	=100
4EE-/] 4E-/]	8cc/L]	4dn\	.
.	8b-/	.	.
[8EE-/ [8E-/	8a-/J	8f\	.
4.EE-/_ 4.E-/_	8g/L	4e-\	.
.	8a-/	.	.
.	[8b-/J	8d-\	.
=101	=101	=101	=101
4EE-/] 4E-/]	8b-/L]	4c\	.
.	8a-/	.	.
[8EE-/ [8E-/	[8g-/J	8B-\	.
8EE-/] 8E-/L]	4g-/]	4.An\	.
8DD-'/ 8D-'/	.	.	.
8CC'/ 8C'/J	[8g-/	.	.
=102	=102	=102	=102
*^	*	*	*
8BBB-'/ 8BB-'/L	4.r	4g-/]	4.d-\	.
8CC'/ 8C'/	.	.	.	.
8DD-'/ 8D-'/J	.	[8f/	.	f
4.Gn/	4.EEE-/ 4.EE-/	(8f/L]	4.r	.
.	.	8e-/	.	.
.	.	8d-/J	.	.
=103	=103	=103	=103	=103
4.E-/	4.AAA-\ 4.AA-\	8d-/L)	4.r	.
.	.	8Bn/	.	.
.	.	[8c/J	.	.
4.r	4.FFF\ 4.FF\	8c/L]	8An\L	.
.	.	8d-/	8B-\	.
.	.	[8e-/J	8c\J	.
*	*	*v	*v	*
=104	=104	=104	=104
4.F/	4.BBB-\ 4.BB-\	8e-/L]	.
.	.	8c/	.
.	.	[8d-/J	.
4.E-/	4.GGG\ 4.GG\	8d-/L]	f
.	.	8B-/	.
.	.	[8e-/J	.
=105	=105	=105	=105
4.A-/	4.CC\ 4.C\	8e-/L]	.
.	.	8dn/	.
.	.	8c/J	.
4.F/	4BBB-\ 4BB-\	8d/L	.
.	.	8e-/	.
.	8AAA-\ 8AA-\	[8f/J	.
*v	*v	*	*
=106	=106	=106
*	*^	*
4.GGG/ 4.GG/	8f/]	4B-\	.
.	4e-/	.	.
.	.	[8d-\	p
4.GGG-/ 4.GG-/	4.a-/	8d-\L]	.
.	.	8c\	.
.	.	8e-\J	.
=107	=107	=107	=107
4FFF/ 4FF/	4.dd-/	8d-\L	.
.	.	8b-\	<
8FFF-/ 8FF-/	.	8a-\J	.
4EEE-/ 4EE-/	4.b-/	8g\L	.
.	.	8f\	.
8DDD-/ 8DD-/	.	[8g\J	.
=108	=108	=108	=108
4CCC/ 4CC/	4ee-/	8g\L]	.
.	.	8b-\	.
8AA-\ 8A-\	8cc/	8a-\J	.
4D-\ 4d-\	4ff/	8g\L	.
.	.	8f\	.
8BB-\ 8B-\	8dd-/	8b-\J	.
=109	=109	=109	=109
4E-\ 4e-\	4gg/	8a-\L	.
.	.	8g\	.
8C\ 8c\	8ee-/	[8cc\J	f
4F\ 4f\	(8aa-/L	8cc\L]	.
.	8gg/	8ee-\	.
8G\ 8g\	[8ff'/J)	[8dd-'\J	.
=110	=110	=110	=110
4A-\ 4a-\	(8ff/L]	8dd-\L]	.
.	8ee-/)	8cc\	.
8En\ 8en\	8dd-'/J	8g\ 8b-\J	.
8F\ 8f\L	(8cc/L	8a-\L	.
8D-\ 8d-\	8dd-/)	8f\ 8a-\	.
8Dn\ 8dn\J	8b-'/J	8a-\J	.
*	*v	*v	*
=111	=111	=111
4.E-\ 4.e-\	4.g/ 4.b-/	.
.	(anq/LL	.
.	b-q/JJ	.
4EE-/ 4E-/	8g/) 8b-/ 8dd-/L	ff
.	8b-/	.
8r	8g/J	.
=112	=112	=112
4r	8d-/L	.
.	8B-/	.
8r	8G/J	.
8D-/L	4r	.
8BB-/	.	.
8GG/J	8r	.
=113	=113	=113
*^	*	*
8EE-/L	4.r	4r	.
8GG/	.	.	.
8BB-/J	.	8r	.
8D-/L	4r	4.r	.
8G/	.	.	.
8B-/J	8r	.	.
*v	*v	*	*
=114	=114	=114
4r	8d-/L	.
.	8g/	.
8r	8b-/J	.
[4.EE-/ [4.E-/	[4.d-/ [4.g/ [4.b-/ [4.dd-/	p
=115	=115	=115
*M12/16	*M12/16	*M12/16
*MM60	*MM60	*MM60
4.EE-/] 4.E-/]	4.d-/] 4.g/] 4.b-/] 4.dd-/]	.
8.DDn/ 8.Dn/	16dn/ 16g/ 16b-/ 16ddn/LL	.
.	16b-/	.
.	16g/JJ	.
8.r	16d/LL	.
.	16B-/	.
.	16G/JJ	.
=116	=116	=116
16Dn\LL	8.r	.
16BB-\	.	.
16GG\JJ	.	.
16DDn\LL	16r	<
16BBB-\ 16DD\ 16BB-\	16D-/ 16G/ 16dn/LL	.
16BBB-\ 16DD\ 16BB-\JJ	16D-/ 16G/ 16d/JJ	.
16BBB-\ 16DD\ 16BB-\LL	16D-/ 16G/ 16d/LL	.
16GGG\ 16DD\ 16GG\	16D-/ 16G/ 16B-/ 16d/	.
16GG\ 16BB-\ 16D\JJ	16G/ 16B-/ 16d/JJ	>
16GG\ 16BB-\ 16D\LL	16G/ 16B-/ 16d/LL	.
16GG\ 16BB-\ 16D\	16G/ 16B-/ 16d/	.
16GG\ 16BB-\ 16D\JJ	16G/ 16B-/ 16d/JJ	.
=117	=117	=117
*k[b-e-]	*k[b-e-]	*k[b-e-]
.	(dq/	.
16GG/ 16BB-/ 16D/LL	[8.dd\)	p
16GG/ 16BB-/ 16D/	.	.
16GG/ 16BB-/ 16D/JJ	.	.
16GG/ 16BB-/ 16D/LL	8dd\L]	.
16GG/ 16BB-/ 16D/	.	.
16GG/ 16BB-/ 16D/JJ	16cc\Jk	.
16GG/ 16BB-/ 16D/LL	(16cc\LL	.
16GG/ 16BB-/ 16D/	16b-\JJ)	.
16GG/ 16BB-/ 16D/JJ	32r	.
.	32a/	.
16GG/ 16BB-/ 16D/LL	(16a/LL	.
16GG/ 16BB-/ 16D/	16b-/JJ)	.
16GG/ 16BB-/ 16D/JJ	32r	.
.	32g/	.
=118	=118	=118
16AAn\ 16C\ 16D\LL	(8g/L	<
16AA\ 16C\ 16D\ 16F#\	.	.
16AA\ 16C\ 16D\ 16F#\JJ	[16f#/Jk	.
16AA\ 16C\ 16D\ 16F#\LL	8f#/L]	.
16AA\ 16C\ 16D\ 16F#\	.	.
16AA\ 16C\ 16D\ 16F#\JJ	16ee-/Jk)	.
16AA\ 16C\ 16D\ 16F#\LL	16r	.
16AA\ 16C\ 16D\ 16F#\	(16ee-\LL	.
16AA\ 16C\ 16D\ 16F#\JJ	32ffn\L	.
.	32ee-\JJJ)	.
16AA\ 16C\ 16D\ 16F#\LL	16r	.
16AA\ 16C\ 16D\ 16F#\	(16dd\LL	>
16AA\ 16C\ 16D\ 16F#\JJ	32ee-\L	.
.	32dd\JJJ)	.
=119	=119	=119
16BB-\ 16D\ 16G\LL	(8dd\L	<
16BB-\ 16D\ 16G\	.	.
16BB-\ 16D\ 16G\JJ	[16gg\Jk)	.
16BBn\ 16D\ 16G\LL	16gg\LL]	.
16BB\ 16D\ 16G\	(16gg\	.
16BB\ 16D\ 16G\JJ	16ff\JJ)	.
16C\ 16E-\ 16G\LL	16r	.
16C\ 16E-\ 16G\	(16ff\LL	.
16C\ 16E-\ 16G\JJ	16ee-\JJ)	.
16E-\ 16G\ 16c\LL	16r	.
16E-\ 16G\ 16c\	16dd\LL	.
16E-\ 16G\ 16c\JJ	[16cc\JJ	.
=120	=120	=120
16D\ 16G\ 16B-\LL	(16cc\LL]	.
16D\ 16G\ 16B-\	16b-\	.
16D\ 16G\ 16B-\JJ	32cc\L	.
.	32dd\JJJ)	>
16D\ 16G\ 16B-\LL	16r	.
16D\ 16G\ 16B-\	(16dd\LL	.
16D\ 16G\ 16B-\JJ	32cc\L	.
.	32b-\JJJ	.
16D\ 16G\ 16B-\LL	(8.b-/L)	p
16D\ 16G\ 16B-\	.	.
16D\ 16G\ 16B-\JJ	.	.
16D\ 16F#\ 16A\LL	8.a/J)	.
16D\ 16F#\ 16A\	.	.
16D\ 16F#\ 16A\JJ	.	.
=121	=121	=121
16GG/ 16BB-/ 16D/ 16G/LL	[8.b-/	<
16GG/ 16BB-/ 16D/ 16G/	.	.
16GG/ 16BB-/ 16D/ 16G/JJ	.	.
16GG/ 16BB-/ 16E-/LL	(16b-/LL]	.
16GG/ 16BB-/ 16E-/	16a/	.
16GG/ 16BB-/ 16E-/JJ	32b-'/JJk)	.
.	32r	.
16FFn/ 16BB-/ 16E-/LL	[8.cc\	.
16FF/ 16BB-/ 16E-/	.	.
16FF/ 16BB-/ 16E-/JJ	.	.
16FF/ 16AA/ 16E-/LL	(16cc\LL]	.
16FF/ 16AA/ 16E-/	16bn\	.
16FF/ 16AA/ 16E-/JJ	32cc'\JJk)	.
.	32r	.
=122	=122	=122
16FF/ 16BB-/ 16D/LL	[8.dd\	.
16FF/ 16BB-/ 16D/	.	.
16FF/ 16BB-/ 16D/JJ	.	.
16FF/ 16AA-/ 16BB-/ 16D/LL	(16dd\LL]	.
16FF/ 16AA-/ 16BB-/ 16D/	16cc#\	.
16FF/ 16AA-/ 16BB-/ 16D/JJ	16dd'\JJ)	.
16GG/ 16BB-/ 16E-/LL	16r	.
16GG/ 16BB-/ 16E-/	(16dd\LL	.
16GG/ 16BB-/ 16E-/JJ	16ee-\JJ)	.
16EE-/ 16BB-/ 16E-/LL	16r	.
16EE-/ 16BB-/ 16E-/	(16ff#\LL	.
16EE-/ 16BB-/ 16E-/JJ	16gg\JJ)	.
=123	=123	=123
16DD/ 16BB-/ 16D/LL	16r	.
16DD/ 16BB-/ 16D/	(32gg\LLL	.
.	32ffn\J	.
16DD/ 16BB-/ 16D/JJ	[16bb-\JJ)	.
16EE-/ 16BB-/ 16E-/LL	(16bb-\LL]	.
16EE-/ 16BB-/ 16E-/	32aa\L	.
.	32gg\J	.
16EE-/ 16BB-/ 16E-/JJ	[16ggg\JJ)	.
16FF/ 16BB-/ 16D/LL	16ggg\LL]	.
16FF/ 16BB-/ 16D/	(16fff\	.
16FF/ 16BB-/ 16D/JJ	16dd\JJ)	.
16GG-/ 16C/ 16E-/LL	16.r	.
16GG-/ 16C/ 16E-/	.	.
.	(32ff\LLL	.
16GG-/ 16C/ 16E-/ 16G-/JJ	32ee-\	.
.	32a\JJJ)	.
=124	=124	=124
.	(aq/	.
16GG-/ 16C/ 16E-/ 16G-/LL	(4.ccn\)	.
16GG-/ 16C/ 16E-/ 16G-/	.	.
16FF/ 16C/ 16E-/ 16F/JJ	.	.
16FF/ 16C/ 16E-/ 16F/LL	.	.
16FF/ 16AA/ 16C/ 16E-/	.	.
16FF/ 16AA/ 16C/ 16E-/JJ	.	.
16FF/ 16BB-/ 16D/LL	8.b-\L	.
16BB-/ 16D/ 16F/	.	.
16BB-/ 16D/ 16F/JJ	.	.
16BB-/ 16D/ 16F/LL	8.dd\J)	.
16BB-/ 16D/ 16F/	.	.
16BB-/ 16D/ 16F/JJ	.	.
=125	=125	=125
16AA-/ 16BBn/ 16D/ 16F/LL	[8dd\L	<
16AA-/ 16BB/ 16D/ 16F/	.	.
16AA-/ 16BB/ 16D/ 16F/JJ	16dd\Jk]	.
16GG/ 16BB/ 16D/ 16F/LL	8r	.
16GG/ 16BB/ 16D/ 16F/	.	.
16C/ 16D/ 16F/ 16A-/JJ	[16a-/	.
16BB\ 16D\ 16G\LL	(8a-/L]	.
16BB\ 16D\ 16F\ 16G\	.	.
16BB\ 16D\ 16F\ 16G\JJ	16g/Jk	.
16BB\ 16D\ 16F\ 16G\LL	8ff\L	>
16BB\ 16D\ 16F\ 16G\	.	.
16BB\ 16D\ 16F\ 16G\JJ	16dd\Jk)	.
=126	=126	=126
.	(ddq/	.
16C\ 16E-\ 16G\LL	(8ff\L)	p
16C\ 16E-\ 16G\	.	.
16C\ 16E-\ 16G\JJ	[16ee-\Jk)	<
16C\ 16E-\ 16G\LL	8.ee-\_	.
16C\ 16F#\ 16An\	.	.
16C\ 16F#\ 16A\JJ	.	.
16C\ 16F#\ 16A\LL	16ee-\LL]	.
16C\ 16F#\ 16A\	[16ee-\	.
16C\ 16F#\ 16A\JJ	16ee-\JJ]	.
16BB-\ 16G\ 16B-\LL	16r	.
16BB-\ 16G\ 16B-\	[16dd\LL	.
16BB-\ 16G\ 16B-\JJ	16dd\JJ]	.
=127	=127	=127
16AA\ 16F#\ 16A\LL	16r	.
16AA\ 16F#\ 16A\	[16cc\LL	>
16AA\ 16F#\ 16A\JJ	16cc\JJ]	.
16GG\ 16D\ 16G\LL	16r	.
16GG\ 16D\ 16G\	[16b-\LL	.
16GG\ 16D\ 16G\JJ	16b-\JJ]	.
16C\ 16E-\ 16A-\LL	16r	.
16C\ 16E-\ 16A-\	[16a-/LL	.
16C\ 16E-\ 16A-\JJ	16a-/JJ]	.
16C#\ 16En\ 16G\ 16B-\LL	16r	.
16C#\ 16E\ 16G\ 16B-\	[16g/LL	.
16C#\ 16E\ 16G\ 16B-\JJ	16g/JJ]	.
=128	=128	=128
16D\ 16G\ 16B-\LL	(8g/L	p
16D\ 16G\ 16B-\	.	.
16D\ 16G\ 16B-\JJ	[16b-/Jk)	.
16D\ 16En\ 16G\ 16c#\LL	(16b-/LL]	.
16D\ 16E\ 16G\ 16c#\	16an/	.
16D\ 16E\ 16G\ 16c#\JJ	[16g/JJ)	>
16D\ 16E\ 16B-\ 16c#\LL	(8g/L]	.
16D\ 16E\ 16B-\ 16c#\	.	.
16D\ 16F#\ 16A\ 16d\JJ	16f#/Jk)	.
16D\ 16F#\ 16A\ 16d\LL	16r	.
16D\	16r	.
16Cn\ 16D\JJ	(16d/	.
=129	=129	=129
16BB-/ 16D/LL	[8.g/)	<
16BB-/ 16E-/	.	.
16BB-/ &(16E-/JJ&)	.	.
16BB-/ 16E-/LL	8g/L]	.
16BB-/ &(16D/&)	.	.
16BB-/ 16D/JJ	(16g/Jk	.
16AA/ 16D/LL	16f#/LL)	.
16AA/ 16D/	16r	.
16AA/ 16D/JJ	16f#/JJ	.
16AA/ 16D/LL	16r	.
16AA/ 16D/	16r	.
16AA/ 16D/JJ	(16d/	.
=130	=130	=130
16GG/ (16D/LL	[8.b-/)	.
16GG/ 16E-/	.	.
16GG/ 16E-/JJ)	.	.
16GG/ (16E-/LL	8b-/L]	.
16GG/ 16D/)	.	.
16GG/ 16D/JJ	(16b-/Jk	.
16GG/ 16D/LL	16a/LL)	.
16FF#/ 16D/	16r	.
16FF#/ 16D/JJ	16a/JJ	.
16FF#/ 16D/LL	16r	.
16FFn/ 16GG/ 16D/	16r	.
16FF/ 16GG/ 16D/JJ	16bn\	.
=131	=131	=131
16FF/ 16GG/ 16D/LL	16r	.
16EE-/ 16GG/ 16C/	16r	.
16EE-/ 16GG/ 16C/JJ	(32bn\LLL	.
.	32cc\JJJ)	>
16EE-\ 16GG\ 16C\LL	16r	.
16C\ 16G\ 16c\	16r	.
16C\ 16G\ 16c\JJ	(32ff\LLL	.
.	32ee-\JJJ)	.
16C\ 16G\ 16c\LL	16r	.
16D\ 16G\ 16B-\	16r	.
16D\ 16G\ 16B-\JJ	(32ee-\LLL	.
.	32dd\JJJ)	.
16D\ 16G\ 16B-\LL	16r	.
16D\ 16A\ 16c\	16r	.
16E-\ 16A\ 16c\JJ	(32g/LLL	.
.	32f#/JJJ)	.
=132	=132	=132
*	*^	*
16E-\ 16A\ 16c\LL	16r	8.r	.
16E-\ 16A\ 16c\	16r	.	.
16E-\ 16A\ 16c\JJ	16f#/	.	.
16D\ 16F#\ 16c\LL	(8.a/	16r	.
16D\ 16F#\ 16c\	.	16d\LL	.
16D\ 16F#\ 16c\JJ	.	32e-\L	.
.	.	&(32d\JJJ&)	.
8G\ 8B-\	8g/)	8d\	.
16r	16r	16r	.
16r	16r	8.r	.
16r	16r	.	.
*	*clefF4	*clefF4	*
16BBB-/ 16BB-/	16B-\	.	.
*	*v	*v	*
=133	=133	=133
16r	16r	.
16r	16r	.
16AAA/ 16AA/	16A\	.
16r	16r	.
16r	16r	.
16DD/ 16D/	16d\	.
16r	16r	.
16r	16r	.
16GG/ 16D/	16G\ 16Bn\	.
16r	16r	.
16r	16r	.
16GGG/ 16DD/ 16GG/	16D\ 16G\ 16B\	.
=134	=134	=134
16r	16r	.
16r	16r	.
16GGG/ 16DD/ 16GG/	16D\ 16G\ 16Bn\	<
16r	16r	.
16r	16r	.
16GGG/ 16DD/ 16GG/	16D\ 16G\ 16B\	.
16r	16r	.
16r	16r	.
16GGG/ 16DD/ 16GG/	16D\ 16G\ 16B\	.
16r	16r	.
16r	16r	.
16GGG/ 16DD/ 16GG/	16D\ 16G\ 16B\	.
=135	=135	=135
16r	16r	.
16r	16r	.
16GGG/ 16BBBn/ 16DD/ 16GG/	16D\ 16G\ 16Bn\ 16d\	.
16r	16r	.
16r	16r	.
16GGG/ 16BBB/ 16DD/ 16GG/	16D\ 16G\ 16B\ 16d\	.
16r	16r	.
16r	16r	.
16GGG/ 16BBB/ 16DD/ 16GG/	16D\ 16G\ 16B\ 16d\	.
16r	16r	.
16r	16r	.
16GGG/ 16BBB/ 16DD/ 16GG/	16D\ 16G\ 16B\ 16d\	>
=136	=136	=136
8r	4r	.
16GGG/LK	.	.
8BBBn/	.	.
.	8r	.
16DD/Jk	.	.
8GG/L	8r	.
16BBn/k	16r	.
&(8D/J&)	8r	.
*	*clefG2	*clefG2
16r	(16G/	.
=137	=137	=137
4r	8Bn/L	.
.	16d/Jk	.
.	8g/L	.
8r	.	.
.	16bn/Jk)	.
=	=	=
*k[f#]	*k[f#]	*k[f#]
*M6/8	*M6/8	*M6/8
*MM110	*MM110	*MM110
4r	4.dd\	.
8r	.	.
=138	=138	=138
2.r	(4.a/	.
.	4.cc\	.
=139	=139	=139
2.r	4.g/	.
.	4.b/	.
=140	=140	=140
2.r	4.f#/	.
.	4g/	.
.	8a/)	.
=141	=141	=141
*	*^	*
2.r	4.r	[4.b\	.
.	(4.gg/	8b\L]	.
.	.	8cc\	.
.	.	&([8b\J&)	.
=142	=142	=142	=142
2.r	4.dd/	8b\L]	.
.	.	8a\	.
.	.	8g#\J	.
.	4.ff#/	8a\L	.
.	.	8b\	.
.	.	&([8a\J&)	.
=143	=143	=143	=143
2.r	4.cc#/	8a\L]	.
.	.	8gn\	.
.	.	8f#\J	.
.	4.ee/	8g\L	.
.	.	8a\	.
.	.	&([8g\J&)	.
=144	=144	=144	=144
2.r	4.a/	8g\L]	.
.	.	8e\	.
.	.	8f#\J	.
.	4b/	8g\L	.
.	.	8f#\	.
.	8cc#/	8e\J	.
=145	=145	=145	=145
4r	8dd/L	8f#\L	.
.	8ccn/	8a\	.
8r	8b/J	[8g\J	.
(4.d\	4a/	8g\]	.
.	.	4fn\	.
.	8b/)	.	.
=146	=146	=146	=146
4.A\	8cc/L	4.e\	.
.	8b/	.	.
.	[8a/J	.	.
4.c\	8a/L]	4e-\	.
.	8g/	.	.
.	8a/J	8f#\	.
=147	=147	=147	=147
4.G\	8b/L	[4.d\	.
.	8a/	.	.
.	[8g/J	.	.
4.B\	4.g/]	8d\L]	.
.	.	8c#\	.
.	.	8d\J	.
=148	=148	=148	=148
4.F#\	8a/L	[4.d\	.
.	8b/	.	.
.	8a/J	.	.
8G\L)	4b/	8d\]	.
8Fn\	.	4g\	.
[8E-\J	[8ccn/	.	.
=149	=149	=149	=149
8E-\L]	8cc/L]	4fn\	.
8D\	8b/	.	.
[8BB\J	8dd/J	8d\	.
8BB\L]	(4.gg/	8r	.
8C\	.	8ee-\L	.
8E-\J	.	8cc\J	.
=150	=150	=150	=150
8G\L	4.dd/	4.b\	.
8Fn\	.	.	.
8E-\J	.	.	.
8D\L	4.ffn/	4.b\	.
8C\	.	.	.
8D\J	.	.	.
=151	=151	=151	=151
8Fn\L	4cc/	4a\	.
8E-\	.	.	.
8D\J	8dd/	8b\	.
8C/L	4.ee-/	4.g\	.
8BB/	.	.	.
8C/J	.	.	.
=152	=152	=152	=152
8E-/L	4a/	4fn\	.
8D/	.	.	.
8C/J	[8dd/	[8f\	.
8BB/L	4dd/]	4f\]	.
8C/	.	.	.
8FF#/J	8cc/	8e-\	.
=153	=153	=153	=153
8GG/L	4bn/)	4d\	.
8C/	.	.	.
8AA/J	8r	8r	.
8D/L	4r	4r	.
8BBn/	.	.	.
8E-/J	[8g/	8r	.
=154	=154	=154	=154
*k[b-e-]	*k[b-e-]	*k[b-e-]	*k[b-e-]
*MM80	*MM80	*MM80	*MM80
16D/LL	(4.g/]	8Bn\L	.
16C/J	.	.	.
8BBn/J	.	8d\	.
8r	.	8c\J	.
4r	4.cc/	8e-\L	.
.	.	8d\	.
8r	.	8f\J	.
=155	=155	=155	=155
8C\L	4.cc/)	16e-\LL	.
.	.	16d\J	.
8F\	.	&(8c\J&)	.
8E-\J	.	8r	.
8G\L	[4.a/	4r	.
8F#\	.	.	.
[8c\J	.	8r	.
=156	=156	=156	=156
16c\LL]	4.a/]	8d\L	.
16B-\J	.	.	.
8A\J	.	8g\	.
8r	.	8f#\J	.
8F#\L	[4.dd/	8a\L	.
8B-\	.	8g\	.
8A\J	.	8cc\J	.
=157	=157	=157	=157
8G\L	4.dd/]	16b-\LL	.
.	.	16a\J	.
8c\	.	8g\J	.
8A\J	.	8r	.
8d\L	[4.b-/	4r	.
8B-\	.	.	.
8e-\J	.	8r	.
=158	=158	=158	=158
16d\LL	4.b-/]	8r	.
16c\J	.	.	.
8B-\J	.	8d\L	.
8r	.	[8g\J	.
8r	4.ee-/	16g\LL]	.
.	.	16f\J	.
8G\L	.	8e-\J	.
[8c\J	.	8r	.
=159	=159	=159	=159
16c\LL]	4.ee-/	8r	.
16B-\J	.	.	.
[8A\	.	8f#\L	.
16A\L]	.	(8cc\J	.
16G\JJ	.	.	.
8F#\L	4.dd/)	16cc\LL	.
.	.	16b-\J	.
8c\	.	8a\	.
8A\J	.	8cc\J	.
=160	=160	=160	=160
8d\L	4.dd/	16bn\LL	.
.	.	16a\J	.
8Bn\	.	8g\	.
8fn\J	.	8a-\J	.
16e-\LL	[4.cc/	[8g\L	.
16d\J	.	.	.
[8c\J	.	16g\L]	.
.	.	16fn\J	.
16c\LL]	.	[8e-\J	.
16B\JJ	.	.	.
=161	=161	=161	=161
[8A-\L	4cc/]	16e-\LL]	.
.	.	16d\J	.
16A-\L]	.	8c\	.
16G\	.	.	.
16Fn\	8bn/	8d\J	.
16G\JJ	.	.	.
[4.CC/ [4.C/	8cc/L	8e-\L	<
.	8ff/	8a-\	.
.	8dd/J	8f\J	.
=162	=162	=162	=162
4.CC/] 4.C/]	8gg/L	8b-\L	.
.	8een/	8g\	.
.	[8aa-/J	[8cc\J	.
[4.FF/ [4.F/	16aa-/LL]	16cc\LL]	.
.	16gg/J	16b-\J	.
.	8ff/	8a-\	.
.	8a-/J	[8cc\J	.
=163	=163	=163	=163
4.FF/] 4.F/]	8cc\L]	8a/L	.
.	8f\	8a-/	.
.	[8cc\J	[8an/J	.
[4.DD/ [4.D/	16cc\LL]	16a/LL]	.
.	16b-\J	16g/J	.
.	8an\J	8f#/J	.
.	(8cc\	[8aan/	.
=164	=164	=164	=164
4.DD/] 4.D/]	8aa/L]	8ee-\L)	.
.	8ff#/	8a\	.
.	[8bb-/J	[8dd\J	.
[4.GG/ [4.G/	16bb-/LL]	16dd\LL]	.
.	16aa/J	16cc\J	.
.	8gg/J	8b-\J	.
.	[8d/	8r	.
=165	=165	=165	=165
4.GG/] 4.G/]	8d/L]	4.r	.
.	8Bn/	.	.
.	[8g/J	.	.
[4.EE-/ [4.E-/	16g/LL]	4r	.
.	16fn/J	.	.
.	8e-/J	.	.
.	[8b-/	[8g\	.
=166	=166	=166	=166
4.EE-/] 4.E-/]	8b-/L]	8g\L]	.
.	8g/	8e-\	.
.	[8ee-/J	[8cc\J	.
[4.AA-\ [4.A-\	16ee-/LL]	16cc\LL]	.
.	16dd-/J	16b-\J	.
.	8cc/J	8a-\J	.
.	8r	[8f\	.
=167	=167	=167	=167
4.AA-\] 4.A-\]	4r	8f\L]	.
.	.	8c\J	.
.	[8b-/	8r	.
[4.GG/ [4.G/	8b-/L]	4r	.
.	8ee-/J	.	.
.	8r	[8e-\	.
=168	=168	=168	=168
4.GG/] 4.G/]	4r	8e-\]	.
.	.	8B-\	.
.	[8a-/	8r	.
[4.FF/ [4.F/	8a-/L]	4r	.
.	8ddn/J	.	.
.	8r	[8dn\	.
=169	=169	=169	=169
4.FF/] 4.F/]	4r	4d\]	.
.	16e-/LL	8r	.
.	16a-/JJ	.	.
4EE-/ 4E-/	16g/LL	8r	.
.	16cc/	.	.
.	32b-/L	8r	.
.	32a-/J	.	.
.	16g/JJ	.	.
8r	8r	16B-\LL	.
.	.	16e-\JJ	.
=170	=170	=170	=170
4r	8a-/	16d\LL	.
.	.	16g\	.
.	8r	32f\L	.
.	.	32e-\J	.
.	.	16d\JJ	.
16BB-\LL	8r	8r	.
16F\JJ	.	.	.
16E-\LL	4r	16g\LL	.
16A-\	.	16cc\	.
32G\L	.	32b-\L	.
32F\J	.	32a-\J	.
16E-\JJ	.	16g\JJ	.
8r	16ee-/LL	8r	.
.	16aa-/JJ	.	.
=171	=171	=171	=171
2.r	16gg/LL	16e-\LL	.
.	16ccc/	16a-\	.
.	32bb-/L	16g\	.
.	32aa-/J	.	.
.	16gg/JJ	16cc\	.
.	8r	32b-\L	.
.	.	32a-\J	.
.	.	16g\JJ	.
.	16gg-/LL	4.ee-\	.
.	16eee-/	.	.
.	16ccc/	.	.
.	16fff/	.	.
.	32eee-/L	.	.
.	32ddd-/J	.	.
.	16ccc/JJ	.	.
=172	=172	=172	=172
16c/LL	4.r	4.an\	.
16F/	.	.	.
16B-/	.	.	.
16F/	.	.	.
32An/L	.	.	.
32G/J	.	.	.
16F/JJ	.	.	.
4.r	16ff/LL	4.dd-\	.
.	16ccc/	.	.
.	16bb-/	.	.
.	16eee-/	.	.
.	32ddd-/L	.	.
.	32ccc/J	.	.
.	16bb-/JJ	.	.
=173	=173	=173	=173
16B-/LL	4.r	4.g\	.
16E-/	.	.	.
16A-/	.	.	.
16E-/	.	.	.
32G/L	.	.	.
32F/J	.	.	.
16E-/JJ	.	.	.
4.r	16ee-/LL	4.cc\	<
.	16bb-/	.	.
.	16aa-/	.	.
.	16ddd-/	.	.
.	32ccc/L	.	.
.	32bb-/J	.	.
.	16aa-/JJ	.	.
*	*v	*v	*
=174	=174	=174
16A-/LL	4.f/	.
16D-/	.	.
16G-/	.	.
16D-/	.	.
32F/L	.	.
32E-/J	.	.
16D-/JJ	.	.
16e-/LL	4gn/	.
16B-/	.	.
16d-/	.	.
16B-/	.	.
32c/L	8a-/	.
32B-/J	.	.
16A-/JJ	.	.
=175	=175	=175
*k[b-e-a-d-]	*k[b-e-a-d-]	*k[b-e-a-d-]
*MM60	*MM60	*MM60
*	*^	*
4.r	16gg/LL	4.b-\	.
.	16ddn/	.	.
.	16ff/	.	.
.	16dd-/	.	.
.	32ff/L	.	.
.	32ee-/J	.	.
.	16dd-/JJ	.	.
4.AAA-/ 4.AA-/	8cc/	16e-\LL	.
.	.	16b-\	.
.	4r	16g\	.
.	.	16a-\	.
.	.	16c\	.
.	.	16g-\JJ	.
*	*v	*v	*
=176	=176	=176
4.DD-/ 4.D-/	16A-/LL	.
.	16g-/	.
.	16A-/	.
.	16en/	.
.	16A-/	.
.	16f/JJ	.
4.BBB-/ 4.BB-/	16d-/LL	.
.	16f/	.
.	16d-/	.
.	16cc/	.
.	16d-/	.
.	16b-/JJ	.
=177	=177	=177
4.EE-/ 4.E-/	16B-/LL	.
.	16a-/	.
.	16B-/	.
.	16f#/	.
.	16B-/	.
.	16gn/JJ	.
4.CC/ 4.C/	16e-/LL	.
.	16g/	.
.	16e-/	.
.	16b-/	.
.	16e-/	.
.	16a-/JJ	.
=178	=178	=178
4.FF/ 4.F/	16dn/LL	.
.	16a-/	.
.	16g/	.
.	16b-/	.
.	16d/	.
.	16a-/JJ	.
4EE-/ 4E-/	16c/LL	.
.	16a-/	.
.	16B-/	.
.	16a-/	.
8DD-/ 8D-/	16fn/	.
.	16g/JJ	.
=179	=179	=179
*	*^	*
8CC/ 8C/L	16e-/LL	4.r	.
.	16a-/	.	.
8BBB-/ 8BB-/	16e-/	.	.
.	16b-/	.	.
8AAA-/ 8AA-/J	16e-/	.	.
.	16cc/JJ	.	.
4GGG/ 4GG/	16b-/LL	4.e-\	f
.	16ee-/	.	.
.	16b-/	.	.
.	16dd-/	.	.
8r	16cc/	.	.
.	16dd-/JJ	.	.
*clefG2	*	*	*
*	*v	*v	*
=180	=180	=180
4.a-/	16b-\LL	.
.	16dd-\	.
.	16bn\	.
.	16dd-\	.
.	16b\	.
.	16cc\JJ	.
4.f/	16cc\LL	.
.	16aa-\	.
.	16cc\	.
.	16bb-\	.
.	16cc\	.
.	16aa-\JJ	.
=181	=181	=181
4.b-/	16ddn\LL	.
.	16gg\	.
.	16dd\	.
.	16een\	.
.	16dd\	.
.	16ff\JJ	.
4.g/	16ee-\LL	.
.	16bb-\	.
.	16ee-\	.
.	16ccc\	.
.	16ee-\	.
.	16bb-\JJ	.
=182	=182	=182
4.cc\	16ee-\LL	.
.	16bb-\	.
.	16ee-\	.
.	16gg\	.
.	16ee-\	.
.	16aa-\JJ	.
4b-/	16ddn\LL	.
.	16aa-\	.
.	16dd\	.
.	16bb-\	.
8a-/	16dd\	.
.	16ccc\JJ	.
=183	=183	=183
4.g/	16ee-\LL	.
.	16ccc\	.
.	16ee-\	.
.	16aan\	.
.	16dd-\	.
.	16bb-\JJ	.
[4.b-/	16dd-\LL	.
.	16aa-\	.
.	16dd-\	.
.	16ff\	.
.	16dd-\	.
.	16gg\JJ	.
=184	=184	=184
4.b-/_	16dd-\LL	.
.	16gg\	.
.	16dd-\	.
.	16ee-\	.
.	16dd-\	.
.	16ff\JJ	.
8b-/L]	16dd-\LL	.
.	16gg\	.
8a-/	16cc\	.
.	16aa-\	.
8g-/J	16cc\	.
.	16bb-\JJ	.
=185	=185	=185
4f/	16dd-\LL	.
.	16bb-\	.
.	16aa-\	.
.	16ddd-\	.
8gn/	16bb-\	.
.	16eee-\JJ	.
*clefF4	*	*
16C\LL	4.a-\ 4.ee-\ 4.aa-\	.
16F\	.	.
16E-\	.	.
16A-\	.	.
16G\	.	.
16A-\JJ	.	.
=186	=186	=186
16BB-\LL	4.dd-\ 4.gg\ 4.ddd-\	.
16G\	.	.
16E-\	.	.
16G\	.	.
16E-\	.	.
16G\JJ	.	.
16D-\LL	4.b-\ 4.gg\ 4.bb-\	.
16B-\	.	.
16E-\	.	.
16B-\	.	.
16E-\	.	.
16B-\JJ	.	.
=187	=187	=187
*	*^	*
16C\LL	4.r	4.ee-\ 4.aa-\ 4.eee-\	.
16F\	.	.	.
16E-\	.	.	.
16A-\	.	.	.
16G\	.	.	.
16A-\JJ	.	.	.
16E-\LL	4gg-/	4.cc\ 4.ccc\	.
16A-\	.	.	.
16G-\	.	.	.
16A-\	.	.	.
16Gn\	8ee-/	.	.
16A-\JJ	.	.	.
=188	=188	=188	=188
16D-\LL	4.fff/	4ff\	.
16A-\	.	.	.
16G\	.	.	.
16A-\	.	.	.
16Dn\	.	8ff\ 8bb-\	.
16A-\JJ	.	.	.
16E-\LL	4.r	4ee-\ 4bb-\ 4eee-\	.
16G\	.	.	.
16E-\	.	.	.
16G\	.	.	.
16En\	.	8dd-\ 8gg\ 8ddd-\	.
16B-\JJ	.	.	.
*	*v	*v	*
=189	=189	=189
16F\LL	4.cc\ 4.aa-\ 4.ccc\	.
16c\	.	.
16A-\	.	.
16c\	.	.
16Bn\	.	.
16c\JJ	.	.
16F\LL	[4.ff\ [4.aa-\	.
16d-\	.	.
16A-\	.	.
16d-\	.	.
16c\	.	.
16d-\JJ	.	.
=190	=190	=190
16D-\LL	4.ff\] 4.aa-\]	.
16d-\	.	.
16A-\	.	.
16d-\	.	.
16c\	.	.
16d-\JJ	.	.
16F\LL	4ee-\ 4gg\	.
16d-\	.	.
16A-\	.	.
16d-\	.	.
16A-\	8dd-\ 8ff\	.
16d-\JJ	.	.
=191	=191	=191
16A-\LL	4.cc\ 4.ee-\	.
16e-\	.	.
16c\	.	.
16e-\	.	.
16dn\	.	.
16e-\JJ	.	.
16A-\LL	[4.cc\ 4.ee-\ [4.ccc\	.
16c\	.	.
16Bn\	.	.
16c\	.	.
16B\	.	.
16c\JJ	.	.
=192	=192	=192
16D-\LL	4.cc\] [4.ff\ 4.ccc\]	.
16B-\	.	.
16F\	.	.
16B-\	.	.
16An\	.	.
16B-\JJ	.	.
16Dn\LL	4b-\ 4ff\] 4bb-\	.
16B-\	.	.
16F\	.	.
16B-\	.	.
16D\	8a-\ 8ff\ 8aa-\	.
16B-\JJ	.	.
=193	=193	=193
16E-\LL	4.g\ 4.ee-\ 4.gg\	.
16B-\	.	.
16G\	.	.
16B-\	.	.
16An\	.	.
16B-\JJ	.	.
16E-\LL	[4.ff\ [4.ddd-\ [4.fff\	.
16B-\	.	.
16G\	.	.
16B-\	.	.
16E-\	.	.
16G\JJ	.	.
=194	=194	=194
16E-\LL	4.ff\] 4.ddd-\] 4.fff\]	.
16G\	.	.
16F\	.	.
16A-\	.	.
16G\	.	.
16B-\JJ	.	.
16G\LL	4ee-\ 4ccc\ 4eee-\	.
16B-\	.	.
16A-\	.	.
16c\	.	.
16B-\	8dd-\ 8bb-\ 8ddd-\	.
16d-\JJ	.	.
=195	=195	=195
16c\LL	4.cc\ 4.aa-\ 4.ccc\	.
16e-\	.	.
16d-\	.	.
16f\	.	.
16c\	.	.
16e-\JJ	.	.
16Bn\LL	[4.aa-\ [4.dddn\ [4.aaa-\	.
16f\	.	.
16dn\	.	.
16f\	.	.
16en\	.	.
16f\JJ	.	.
=196	=196	=196
16Bn\LL	4.aa-\] 4.ddd\] 4.aaa-\]	.
16f\	.	.
16dn\	.	.
16f\	.	.
16en\	.	.
16f\JJ	.	.
*clefG2	*	*
16Bn/LL	4aa-\ 4dddn\ 4ggg\	.
16a-/	.	.
16dn/	.	.
16a-/	.	.
16B/	8aa-\ 8ddd\ 8fff\	.
16a-/JJ	.	.
=197	=197	=197
16c/LL	4.aa-\ 4.ccc\ 4.eee-\	.
16a-/	.	.
16e-/	.	.
16a-/	.	.
16g/	.	.
16a-/JJ	.	.
16d-/LL	4aa-\ 4bb-\ 4fff\	.
16a-/	.	.
16f/	.	.
16a-/	.	.
16dn/	8ff\ 8aa-\ 8bb-\	.
[16f/JJ	.	.
=198	=198	=198
*	*^	*
16f\LL]	4.r	4.ee-\ 4.aa-\ 4.ccc\	.
16e-\	.	.	.
16d-\	.	.	.
*clefF4	*	*	*
16c\	.	.	.
16B-\	.	.	.
[16A-\JJ	.	.	.
16A-\LL]	4bb-/	8ee-\L	.
16G\	.	.	.
16F\	.	8gg\	.
16E-\	.	.	.
16Dn\	8gg/ 8bb-/ 8eee-/	8ee-\J	.
16E-\JJ	.	.	.
*	*v	*v	*
=199	=199	=199
16FF\LL	4.ddn\ 4.aa-\ 4.dddn\	.
16F\	.	.
16BB-\	.	.
16F\	.	.
16BB-\	.	.
16F\JJ	.	.
16GG\LL	4.dd-\ 4.bb-\ 4.ddd-\	.
16G\	.	.
16E-\	.	.
16G\	.	.
16E-\	.	.
16G\JJ	.	.
=200	=200	=200
*	*^	*
16AA-/LL	4ee-/	4.cc\ 4.ccc\	.
16BB-/	.	.	.
16AA-/	.	.	.
16GG-/	.	.	.
16FF/	8aa-/	.	.
16EE-/JJ	.	.	.
16DD-/LL	4.r	4ff\ 4aa-\ 4ddd-\	.
16AA-/	.	.	.
16FF/	.	.	.
16AA-/	.	.	.
16DDn/	.	8ff\ 8aa-\ 8bb-\	.
16AA-/JJ	.	.	.
=201	=201	=201	=201
16EE-/LL	8aa-/ 8ccc/	8ee-\	.
16E-/	.	.	.
16DD-/	4bb-/	8ff\ (8aa-\L	.
16D-/	.	.	.
16EE-/	.	8dd-\ 8gg\J)	.
16E-/JJ	.	.	.
16AAA-/LL	4.r	4.cc\ 4.ee-\ 4.aa-\	.
16AA-/	.	.	.
16CC/	.	.	.
16AA-/	.	.	.
16EE-/	.	.	.
16AA-/JJ	.	.	.
*	*v	*v	*
=202	=202	=202
16AAA-/LL	4.ff\ 4.aa-\ 4.ddd-\	.
16AA-/	.	.
16DD-/	.	.
16AA-/	.	.
16FF/	.	.
16AA-/JJ	.	.
16AAA-/LL	4.dd-\ 4.gg\ 4.bb-\	.
16AA-/	.	.
16DD-/	.	.
16AA-/	.	.
16FF-/	.	.
16AA-/JJ	.	.
=203	=203	=203
16AAA-/LL	4.ee-\ 4.aa-\ 4.ccc\ 4.eee-\	.
16AA-/	.	.
16CC/	.	.
16AA-/	.	.
16EE-/	.	.
16AA-/JJ	.	.
16AAA-/LL	4.ee-\ 4.gg-\ 4.ccc\	.
16AA-/	.	.
16EE-/	.	.
16AA-/	.	.
16GG-/	.	.
16AA-/JJ	.	.
=204	=204	=204
16AAA-/LL	4.ff\ 4.ddd-\ 4.fff\	.
16AA-/	.	.
16DD-/	.	.
16AA-/	.	.
16FF/	.	.
16AA-/JJ	.	.
16AAA-/LL	4.ff\ 4.ccc-\ 4.dddn\	.
16AA-/	.	.
16DDn/	.	.
16AA-/	.	.
16FF/	.	.
16AA-/JJ	.	.
=205	=205	=205
*	*8va	*
*	*^	*
16AAA-/LL	4.ggg-/	2.gg-\ 2.cccn\	.
16AA-/	.	.	.
16EE-/	.	.	.
16AA-/	.	.	.
16GG-/	.	.	.
16AA-/JJ	.	.	.
16AAA-/LL	4fff/	.	.
16AA-/	.	.	.
16EE-/	.	.	.
16AA-/	.	.	.
16GG-/	8eee-/	.	.
16AA-/JJ	.	.	.
=206	=206	=206	=206
16AAA-/LL	2.fff/	4.ff\ 4.ddd-\	.
16AA-/	.	.	.
16DD-/	.	.	.
16AA-/	.	.	.
16FF/	.	.	.
16AA-/JJ	.	.	.
16AAA-/LL	.	4.ff\ 4.dddn\	.
16AA-/	.	.	.
16DDn/	.	.	.
16AA-/	.	.	.
16FF/	.	.	.
16AA-/JJ	.	.	.
=207	=207	=207	=207
16AAA-/LL	4.aaa-/	2.ccc-\ 2.dddn\	.
16AA-/	.	.	.
16DDn/	.	.	.
16AA-/	.	.	.
16FF/	.	.	.
16AA-/JJ	.	.	.
16AAA-/LL	4ggg-/	.	.
16AA-/	.	.	.
16DD/	.	.	.
16AA-/	.	.	.
16FF/	8fff/	.	.
16AA-/JJ	.	.	.
*	*v	*v	*
=208	=208	=208
16AAA-/LL	2.bb-\ 2.ddd-\ 2.fff-\ 2.gggn\	.
16GGn/	.	.
16BBB-/	.	.
16GG/	.	.
16DD-/	.	.
16GG/JJ	.	.
16FF-/LL	.	.
16GG/	.	.
16DD-/	.	.
16GG/	.	.
16BBB-/	.	.
16GG/JJ	.	.
=209	=209	=209
*	*^	*
16AAA-/LL	4.ggg/ 4.bbb-/	2.ddd-\ 2.fff-\	.
16GG/	.	.	.
16BBB-/	.	.	.
16GG/	.	.	.
16DD-/	.	.	.
16GG/JJ	.	.	.
16FF-/LL	4aaa-/	.	.
16GG/	.	.	.
16DD-/	.	.	.
16GG/	.	.	.
16BBB-/	8ggg/	.	.
16GG/JJ	.	.	.
*	*v	*v	*
=210	=210	=210
4AAA-/ 4CC/ 4EE-/ 4AA-/	16ccc\ 16eee-\ 16aaa-\ 16cccc\LL	ff
.	16aaa-\	.
.	16eee-\	.
.	16aaa-\	.
8r	16eee-\	.
.	16ccc\JJ	.
4r	16eee-\LL	.
.	16ccc\	.
.	16aa-\	.
.	16ccc\	.
8r	16aa-\	.
.	16ee-\JJ	.
*	*X8va	*
=211	=211	=211
*^	*^	*
4.r	4.r	4r	16cc\LL	.
.	.	.	16a-\	.
.	.	.	16e-\	.
.	.	.	16a-\	.
.	.	8r	16e-\	.
.	.	.	16c\JJ	.
16A-/LL	4r	4.r	4.r	.
16E-/	.	.	.	.
16C/	.	.	.	.
16E-/	.	.	.	.
16C/	8r	.	.	.
16AA-/JJ	.	.	.	.
*v	*v	*	*	*
*	*v	*v	*
*	*clefF4	*clefF4
=212	=212	=212
16AAA-/LL	8r	.
16CC/	.	.
16EE-/JJ	16r	.
16r	16AA-/LL	.
8r	16C/	.
.	16E-/JJ	.
16AA-/LL	8r	.
16C/	.	.
16E-/JJ	16r	.
*	*clefG2	*clefG2
16r	16A-/LL	.
8r	16c/	.
.	16e-/JJ	.
=213	=213	=213
16A-\LL	8r	.
16c\	.	.
16e-\JJ	16r	.
16r	16a-\LL	.
8r	16cc\	.
.	16ee-\JJ	.
*clefG2	*	*
16a-\LL	8r	.
16cc\	.	.
16ee-\JJ	16r	.
16r	16aa-\LL	.
8r	16ccc\	.
.	16eee-\JJ	.
*clefF4	*	*
=214	=214	=214
4AAA-/ 4CC/ 4EE-/ 4AA-/	4aa-\ 4ccc\ 4eee-\ 4aaa-\	.
8r	8r	.
==	==	==
*-	*-	*-
!!!ENC: Craig Stuart Sapp
!!!END: 2008/10/28/
!!!EEV: 2014/07/13/ (added ottavas)
